symbols/web/folder_special/materialsymbolssharp/folder_special_wght700grad200_24px.svg

<svg xmlns="http://www.w3.org/2000/svg" height="24" width="24"><path d="m12.5 16.975 2.425-1.85 2.4 1.85-.875-3 2.4-1.95h-3l-.925-2.95-.95 2.95h-3l2.425 1.95ZM.85 21.225v-18.9h8.525L12 4.95h11.15v16.275Zm3.4-3.4h15.5V8.35H10.6L7.975 5.725H4.25Zm0 0v-12.1V8.35Z"/></svg>

<svg xmlns="http://www.w3.org/2000/svg" height="24" width="24"><path d="M12.5 16.975 14.925 15.125 17.325 16.975 16.45 13.975 18.85 12.025H15.85L14.925 9.075L13.975 12.025H10.975L13.4 13.975ZM0.85 21.225V2.325H9.375L12 4.95H23.15V21.225ZM4.25 17.825H19.75V8.35H10.6L7.975 5.725H4.25ZM4.25 17.825V5.725V8.35Z"/></svg>
